app/img/section-ico-1.svg

<?xml version="1.0" encoding="UTF-8" standalone="no"?>
<svg width="80px" height="90px" viewBox="0 0 80 90" version="1.1" xmlns="http://www.w3.org/2000/svg" xmlns:xlink="http://www.w3.org/1999/xlink">
    <!-- Generator: sketchtool 47.1 (45422) - http://www.bohemiancoding.com/sketch -->
    <title>93195352-B8BE-455D-B82F-79DFF2557660</title>
    <desc>Created with sketchtool.</desc>
    <defs></defs>
    <g id="Page-1" stroke="none" stroke-width="1" fill="none" fill-rule="evenodd">
        <g id="main-1280" transform="translate(-600.000000, -760.000000)">
            <g id="Group-21" transform="translate(600.000000, 760.000000)">
                <path d="M44.8232707,1.29963498 L75.2232707,18.9648135 L75.2232707,18.9648135 C78.1804,20.6831759 80,23.8450348 80,27.2651785 L80,62.7031931 L80,62.7031931 C80,66.1233368 78.1804,69.2851957 75.2232707,71.0035581 L44.8232707,88.6687366 L44.8232707,88.6687366 C41.8412155,90.4015833 38.1587845,90.4015833 35.1767293,88.6687366 L4.77672927,71.0035581 L4.77672927,71.0035581 C1.81959999,69.2851957 3.73034936e-14,66.1233368 3.19744231e-14,62.7031931 L1.50990331e-14,27.2651785 L1.77635684e-14,27.2651785 C1.59872116e-14,23.8450348 1.81959999,20.6831759 4.77672927,18.9648135 L35.1767293,1.29963498 L35.1767293,1.29963498 C38.1587845,-0.433211659 41.8412155,-0.433211659 44.8232707,1.29963498 Z" id="Combined-Shape" fill="#FFFFFF"></path>
                <path d="M56.1480697,45.5383763 C57.8628941,47.2845438 58.9248484,49.6991472 58.9248484,52.3656249 C58.9248484,55.0321026 57.8628941,57.4454951 56.1480697,59.1928735 C54.6615715,60.7053307 52.6851234,61.7188828 50.4803492,61.9634916 L50.4803492,57.5435808 L55.6795255,52.2493752 C56.0850422,51.8364466 56.0850422,51.1667998 55.6795255,50.7550821 C55.2763872,50.3421534 54.6187603,50.3421534 54.2132436,50.7550821 L50.4803492,54.5562054 L50.4803492,46.9152088 C50.4803492,46.3315384 50.0165618,45.858063 49.4421788,45.858063 C48.8701743,45.858063 48.4051977,46.3315384 48.4051977,46.9152088 L48.4051977,54.5562054 L44.6723033,50.7550821 C44.2679758,50.3421534 43.6103489,50.3421534 43.2048322,50.7550821 C42.8005047,51.1667998 42.8005047,51.8364466 43.2048322,52.2493752 L48.4051977,57.5435808 L48.4051977,61.9634916 C46.2016127,61.7188828 44.2239754,60.7053307 42.7386664,59.1928735 C41.0226528,57.4454951 39.9618876,55.0321026 39.9618876,52.3656249 C39.9618876,49.6991472 41.0226528,47.2845438 42.7386664,45.5383763 C44.4534907,43.7909979 46.8247527,42.7096334 49.4421788,42.7096334 C52.0607942,42.7096334 54.4332454,43.7909979 56.1480697,45.5383763 Z M31.3485222,59.1710767 C28.2613626,58.7823667 25.5107463,56.6717079 23.4902979,53.455466 C21.33547,50.0224667 20,45.3058769 20,40.1182336 C20,34.9305903 21.33547,30.2140005 23.4902979,26.7822121 C25.7355048,23.2099554 28.8773675,21 32.3866926,21 C35.8960176,21 39.0390695,23.2099554 41.2830873,26.7822121 C43.4391043,30.2140005 44.7733852,34.9305903 44.7733852,40.1182336 C44.7733852,40.5795996 44.7579256,41.090614 44.7293848,41.6185814 C46.1683151,40.9622549 47.7642196,40.5977636 49.4421788,40.5977636 C52.6339879,40.5977636 55.5237405,41.9152604 57.6143516,44.0440832 C59.7061519,46.1741169 61,49.1154768 61,52.3656249 C61,55.6145621 59.7061519,58.5571329 57.6143516,60.6871667 C55.7532558,62.5834901 53.2571279,63.8343854 50.4803492,64.0862598 L50.4803492,65.8869193 L55.3275227,65.8869193 C55.9007164,65.8869193 56.3656931,66.3603947 56.3656931,66.9428542 C56.3656931,67.5265246 55.9007164,68 55.3275227,68 L26.08394,68 C25.5095571,68 25.0457696,67.5265246 25.0457696,66.9428542 C25.0457696,66.3603947 25.5095571,65.8869193 26.08394,65.8869193 L31.3485222,65.8869193 L31.3485222,59.1710767 Z M35.431041,56.319326 C34.7817386,56.6608095 34.1086521,56.9042074 33.424863,57.0289336 L33.424863,49.7257878 L39.137773,43.9072476 C39.5432897,43.4955298 39.5432897,42.8258831 39.137773,42.4141654 C38.7334455,42.0012367 38.0770079,42.0012367 37.6714911,42.4141654 L33.424863,46.7384124 L33.424863,39.8288202 L39.137773,34.0102801 C39.5432897,33.5973514 39.5432897,32.9289156 39.137773,32.5159869 C38.7334455,32.1042692 38.0770079,32.1042692 37.6714911,32.5159869 L33.424863,36.8414449 L33.424863,28.7160745 C33.424863,28.133615 32.9598863,27.6601396 32.3866926,27.6601396 C31.8146881,27.6601396 31.3485222,28.133615 31.3485222,28.7160745 L31.3485222,36.8414449 L27.101894,32.5159869 C26.6975665,32.1042692 26.0411289,32.1042692 25.6356121,32.5159869 C25.2312846,32.9289156 25.2312846,33.5973514 25.6356121,34.0102801 L31.3485222,39.8288202 L31.3485222,46.7384124 L27.101894,42.4141654 C26.6975665,42.0012367 26.0411289,42.0012367 25.6356121,42.4141654 C25.2312846,42.8258831 25.2312846,43.4955298 25.6356121,43.9072476 L31.3485222,49.7257878 L31.3485222,57.0361992 C28.9974766,56.6402236 26.8604867,54.9134311 25.233663,52.3244531 C23.2821881,49.2196171 22.0763407,44.9050576 22.0763407,40.1182336 C22.0763407,35.3314096 23.2821881,31.01685 25.233663,27.912014 C27.095948,24.9464355 29.6277518,23.1130807 32.3866926,23.1130807 C35.1456333,23.1130807 37.6774371,24.9464355 39.5409113,27.912014 C41.4923862,31.01685 42.6982336,35.3314096 42.6982336,40.1182336 C42.6982336,40.6486229 42.6815848,41.1899106 42.6506657,41.7045578 C42.6268817,42.1114317 42.5935841,42.5207276 42.556719,42.9142813 C42.1012559,43.2593976 41.6719552,43.6372092 41.2711953,44.0440832 C39.179395,46.1741169 37.8855469,49.1154768 37.8855469,52.3656249 C37.8855469,53.0231623 37.9390608,53.6673795 38.0401427,54.2958545 C37.2481364,55.1350321 36.3657511,55.8276866 35.431041,56.319326 Z M38.658526,56.6014737 C37.9438176,57.2347925 37.1791629,57.7724474 36.3800215,58.1938526 C35.4334194,58.6903357 34.4404386,59.0269755 33.424863,59.165022 L33.424863,65.8869193 L48.4051977,65.8869193 L48.4051977,64.0862598 C45.6284189,63.8343854 43.1334803,62.5834901 41.2711953,60.6871667 C40.1414566,59.535568 39.2436117,58.1478371 38.658526,56.6014737 L38.658526,56.6014737 Z" id="Fill-21" fill="#FECE00"></path>
            </g>
        </g>
    </g>
</svg>

<svg xmlns="http://www.w3.org/2000/svg" width="80" height="82" viewBox="0 0 80 82">
    <g fill="none" fill-rule="evenodd">
        <path fill="#FFF" d="M44.823 1.3l30.4 17.665a9.6 9.6 0 0 1 4.777 8.3V72.33a9.6 9.6 0 0 1-9.6 9.6H9.6a9.6 9.6 0 0 1-9.6-9.6V27.265a9.6 9.6 0 0 1 4.777-8.3L35.177 1.3a9.6 9.6 0 0 1 9.646 0z"/>
        <path fill="#86BD3E" d="M56.148 45.538a9.716 9.716 0 0 1 2.777 6.828 9.718 9.718 0 0 1-2.777 6.827 9.393 9.393 0 0 1-5.668 2.77v-4.42l5.2-5.294a1.07 1.07 0 0 0 0-1.494 1.023 1.023 0 0 0-1.467 0l-3.733 3.801v-7.64c0-.584-.463-1.058-1.038-1.058-.572 0-1.037.474-1.037 1.057v7.641l-3.733-3.8a1.024 1.024 0 0 0-1.467 0 1.072 1.072 0 0 0 0 1.493l5.2 5.295v4.42a9.39 9.39 0 0 1-5.666-2.771 9.713 9.713 0 0 1-2.777-6.827 9.71 9.71 0 0 1 2.777-6.828 9.365 9.365 0 0 1 6.703-2.828 9.368 9.368 0 0 1 6.706 2.828zm-24.8 13.633c-3.087-.389-5.837-2.5-7.858-5.716-2.155-3.433-3.49-8.15-3.49-13.337 0-5.187 1.335-9.904 3.49-13.336C25.736 23.21 28.877 21 32.387 21c3.509 0 6.652 2.21 8.896 5.782 2.156 3.432 3.49 8.149 3.49 13.336 0 .462-.015.973-.044 1.5a11.327 11.327 0 0 1 4.713-1.02c3.192 0 6.082 1.317 8.172 3.446A11.84 11.84 0 0 1 61 52.366c0 3.249-1.294 6.191-3.386 8.321a11.433 11.433 0 0 1-7.134 3.4v1.8h4.848c.573 0 1.038.473 1.038 1.056 0 .584-.465 1.057-1.038 1.057H26.084a1.047 1.047 0 0 1-1.038-1.057c0-.583.464-1.056 1.038-1.056h5.265V59.17zm4.083-2.852a7.032 7.032 0 0 1-2.006.71v-7.303l5.713-5.819a1.068 1.068 0 0 0 0-1.493 1.023 1.023 0 0 0-1.467 0l-4.246 4.324v-6.91l5.713-5.818a1.07 1.07 0 0 0 0-1.494 1.025 1.025 0 0 0-1.467 0l-4.246 4.325v-8.125c0-.582-.465-1.056-1.038-1.056-.572 0-1.038.474-1.038 1.056v8.125l-4.247-4.325a1.025 1.025 0 0 0-1.466 0 1.072 1.072 0 0 0 0 1.494l5.713 5.819v6.91l-4.247-4.325a1.023 1.023 0 0 0-1.466 0 1.07 1.07 0 0 0 0 1.493l5.713 5.819v7.31c-2.352-.396-4.489-2.123-6.115-4.712-1.952-3.104-3.158-7.419-3.158-12.206s1.206-9.101 3.158-12.206c1.862-2.966 4.394-4.799 7.153-4.799 2.759 0 5.29 1.833 7.154 4.799 1.951 3.105 3.157 7.42 3.157 12.206 0 .53-.016 1.072-.047 1.587-.024.406-.057.816-.094 1.21a11.85 11.85 0 0 0-1.286 1.13 11.84 11.84 0 0 0-3.385 8.32c0 .658.053 1.302.154 1.93-.792.84-1.674 1.533-2.609 2.024zm3.228.282a11.638 11.638 0 0 1-2.279 1.593c-.947.496-1.94.833-2.955.971v6.722h14.98v-1.8a11.435 11.435 0 0 1-7.134-3.4 11.8 11.8 0 0 1-2.612-4.086z"/>
    </g>
</svg>
